icons/eclipse.svg

<?xml version="1.0" encoding="UTF-8"?>
<svg width="256px" height="240px" viewBox="0 0 256 240" version="1.1" xmlns="http://www.w3.org/2000/svg" xmlns:xlink="http://www.w3.org/1999/xlink" preserveAspectRatio="xMidYMid">
    <defs>
        <linearGradient x1="49.9996994%" y1="1089.3962%" x2="49.9996994%" y2="-159.499661%" id="linearGradient-1">
            <stop stop-color="#473788" offset="30.33%"></stop>
            <stop stop-color="#2C2255" offset="87.2%"></stop>
        </linearGradient>
        <linearGradient x1="49.9989479%" y1="896.536635%" x2="49.9989479%" y2="-352.359227%" id="linearGradient-2">
            <stop stop-color="#473788" offset="30.33%"></stop>
            <stop stop-color="#2C2255" offset="87.2%"></stop>
        </linearGradient>
        <linearGradient x1="49.9988435%" y1="215.169856%" x2="49.9988435%" y2="-166.715419%" id="linearGradient-3">
            <stop stop-color="#473788" offset="30.33%"></stop>
            <stop stop-color="#2C2255" offset="86.31%"></stop>
        </linearGradient>
    </defs>
    <g>
        <path d="M251.481071,152.819687 C246.245691,170.642011 236.536567,186.62 222.330265,200.732561 L221.705382,201.357553 C203.966028,218.982612 183.308033,229.550237 159.751763,233.105682 C153.799271,234.003242 147.671016,234.474286 141.345908,234.474286 C109.70396,234.474286 82.6458994,223.2372 60.1436046,200.732561 C46.0286993,186.615313 36.387537,170.642011 31.1919957,152.819687 L31.1919957,152.819687 Z M255.903257,126.17174 C255.692342,130.41746 255.253639,134.566371 254.617899,138.635555 L254.39873,139.989021 L28.2954287,139.989021 C27.6183913,135.937342 27.1387705,131.807836 26.8804839,127.583418 L26.8026187,126.17174 L255.903257,126.17174 Z M254.394043,99.5237922 C255.075299,103.57758 255.557239,107.707297 255.817656,111.930028 L255.896227,113.341073 L26.8026187,113.341073 C27.0114246,109.097462 27.4461206,104.948762 28.0776636,100.87789 L28.2954287,99.5237922 L254.394043,99.5237922 Z" fill="#2C2255"></path>
        <path d="M251.485758,86.6907818 C246.255065,68.8192446 236.543597,52.7709511 222.330265,38.5552752 C204.498567,20.7235776 183.690624,10.0254964 159.934556,6.42587921 C153.92582,5.51425739 147.736634,5.03618323 141.345908,5.03618323 C109.70396,5.03618323 82.6435559,16.2123386 60.1436046,38.5552752 C46.0240123,52.7709511 36.378163,68.8192446 31.1849652,86.6907818" fill="#2C2255"></path>
        <path d="M19.9900619,119.759922 C19.9900619,59.2413568 65.44226,8.95686008 124.571129,0.112488039 C123.104097,0.0585875201 121.630035,0 120.148943,0 C53.795061,0 0,53.6192984 0,119.759922 C0,185.902888 53.7927175,239.519843 120.148943,239.519843 C121.634722,239.519843 123.108784,239.463599 124.580503,239.409699 C65.44226,230.565327 19.9900619,180.28083 19.9900619,119.759922 Z" fill="#F7941E"></path>
        <g transform="translate(63.110477, 99.069153)">
            <path d="M156.201359,14.2695764 C155.817025,9.53336127 155.020235,4.91432119 153.829736,0.452295655 L2.65049941,0.452295655 C1.460001,4.91197769 0.660867227,9.53101777 0.276533095,14.2695764 L156.201359,14.2695764 Z" fill="url(#linearGradient-1)"></path>
            <path d="M156.201359,27.1025868 L0.278876596,27.1025868 C0.663210728,31.8388019 1.4576575,36.457842 2.65049941,40.9198675 L153.83208,40.9198675 C155.022578,36.457842 155.817025,31.8388019 156.201359,27.1025868 Z" fill="url(#linearGradient-2)"></path>
            <path d="M78.2401179,98.9355735 C109.635998,98.9355735 136.698745,80.4383216 149.161483,53.7505345 L7.31875301,53.7505345 C19.7814903,80.4383216 46.8442376,98.9355735 78.2401179,98.9355735 Z" fill="url(#linearGradient-3)"></path>
        </g>
        <path d="M254.368264,139.986677 C253.597253,144.354963 252.587204,148.638882 251.335774,152.819687 L251.335774,152.819687 L31.1896522,152.819687 C29.9358793,148.636539 29.0617535,144.352619 28.2930852,139.986677 L28.2930852,139.986677 Z M255.701716,113.338729 C255.828265,115.548651 255.910288,117.767946 255.910288,120.005989 C255.910288,122.0753 255.849357,124.130551 255.741556,126.17174 L255.741556,126.17174 L26.7627792,126.17174 C26.6549782,124.130551 26.5940471,122.0753 26.5940471,120.005989 C26.5940471,117.767946 26.6760697,115.546307 26.8026187,113.338729 L26.8026187,113.338729 Z M250.585854,86.6907818 C251.858375,90.8715872 252.877798,95.1578502 253.669901,99.5237922 L253.669901,99.5237922 L28.2954287,99.5237922 C29.0851885,95.1555067 29.9077573,90.8692437 31.1826217,86.6907818 L31.1826217,86.6907818 Z" fill="#FFFFFF"></path>
    </g>
</svg>

<svg xmlns="http://www.w3.org/2000/svg" viewBox="0 0 255.91 239.52">
  <defs>
    <linearGradient id="a" x1="23.29" x2="23.29" y1="507.175" y2="-72.514" gradientTransform="scale(3.35928 .29768)" gradientUnits="userSpaceOnUse">
      <stop offset="30.33%" stop-color="#473788"/>
      <stop offset="87.2%" stop-color="#2C2255"/>
    </linearGradient>
    <linearGradient id="b" x1="23.29" x2="23.29" y1="507.179" y2="-72.506" gradientTransform="scale(3.35926 .29768)" gradientUnits="userSpaceOnUse">
      <stop offset="30.33%" stop-color="#473788"/>
      <stop offset="87.2%" stop-color="#2C2255"/>
    </linearGradient>
    <linearGradient id="c" x1="44.158" x2="44.158" y1="267.492" y2="-38.235" gradientTransform="scale(1.77177 .5644)" gradientUnits="userSpaceOnUse">
      <stop offset="30.33%" stop-color="#473788"/>
      <stop offset="86.31%" stop-color="#2C2255"/>
    </linearGradient>
  </defs>
  <path fill="#2c2255" d="M251.481 152.82c-5.235 17.822-14.944 33.8-29.15 47.913l-.626.625c-17.739 17.625-38.397 28.192-61.953 31.748a123.214 123.214 0 0 1-18.406 1.368c-31.642 0-58.7-11.237-81.202-33.741-14.115-14.118-23.756-30.091-28.952-47.913zm4.422-26.648c-.21 4.245-.65 8.394-1.285 12.464l-.22 1.353H28.296a119.367 119.367 0 0 1-1.415-12.406l-.077-1.411zm-1.509-26.648a118.927 118.927 0 0 1 1.424 12.406l.078 1.411H26.803c.208-4.244.643-8.392 1.275-12.463l.217-1.354zM251.486 86.69c-5.23-17.87-14.942-33.919-29.156-48.135-17.831-17.831-38.64-28.53-62.395-32.13a123.693 123.693 0 0 0-18.59-1.389c-31.641 0-58.701 11.176-81.201 33.52C46.024 52.77 36.378 68.818 31.185 86.69"/>
  <path fill="#f7941e" d="M19.99 119.76C19.99 59.24 65.442 8.957 124.571.112 123.104.06 121.63 0 120.15 0 53.795 0 0 53.62 0 119.76c0 66.143 53.793 119.76 120.149 119.76 1.486 0 2.96-.056 4.431-.11-59.138-8.845-104.59-59.13-104.59-119.65z"/>
  <path fill="url(#a)" d="M156.201 14.27A78.06 78.06 0 0 0 153.83.452H2.65A77.99 77.99 0 0 0 .277 14.27z" style="fill:url(#a)" transform="translate(63.11 99.07)"/>
  <path fill="url(#b)" d="M156.201 27.103H.28A77.847 77.847 0 0 0 2.65 40.92h151.182a78.058 78.058 0 0 0 2.37-13.817z" style="fill:url(#b)" transform="translate(63.11 99.07)"/>
  <path fill="url(#c)" d="M78.24 98.936c31.396 0 58.459-18.498 70.921-45.185H7.32C19.78 80.438 46.844 98.936 78.24 98.936z" style="fill:url(#c)" transform="translate(63.11 99.07)"/>
  <path fill="#fff" d="M254.368 139.987a113.596 113.596 0 0 1-3.032 12.833H31.19c-1.254-4.183-2.128-8.467-2.897-12.833zm1.334-26.648c.126 2.21.208 4.429.208 6.667 0 2.07-.06 4.125-.168 6.166H26.762a116.869 116.869 0 0 1-.168-6.166c0-2.238.082-4.46.209-6.667zm-5.116-26.648a113.864 113.864 0 0 1 3.084 12.833H28.295c.79-4.368 1.613-8.655 2.888-12.833z"/>
</svg>
